dist/images/union-blue.svg

<svg width="41" height="40" viewBox="0 0 41 40" fill="none" xmlns="http://www.w3.org/2000/svg">
<path fill-rule="evenodd" clip-rule="evenodd" d="M33.2549 0H40.0019V8.20375H39.9975V16.4074H37.9627V8.20375H33.2549V0ZM0 8.20364H21.8474V16.7827H12.3159V26.8095H0V16.7827V16.7827V8.20364ZM15.901 21.8233H21.8448V30.027H15.901V21.8233ZM34.0554 30.0269H21.8466V40.0001H34.0554V30.0269ZM0 35.0132H1.98126V39.9998H0V35.0132Z" fill="#3486C7"/>
</svg>

<svg width="41" height="40" fill="none" xmlns="http://www.w3.org/2000/svg"><path fill-rule="evenodd" clip-rule="evenodd" d="M33.255 0h6.747v8.204h-.005v8.203h-2.034V8.204h-4.708V0zM0 8.204h21.847v8.579h-9.531v10.026H0V8.203zm15.901 13.62h5.944v8.203H15.9v-8.204zm18.154 8.203H21.847V40h12.208v-9.973zM0 35.013h1.981V40H0v-4.987z" fill="#3486C7"/></svg>
